X:36
T:Lady Athenry
R:Other
O:Ireland
M:6/8
C:Turlough O'Carolan
K:A
c3 A2c|e2F AGF|B2A {A}G2F|E2e efe|\
cdc B2A|G2B e2B|c3 A2c|B2G E3|
C2D E2F|E2A GAB|c2F B2G|A2F DAF|\
e2f ecA|d2F B2G|E2A A2G|A3 A2::
c/d/|\
e2c A2f|e2d c2d|e2a {a}g2f|g2e b2g|\
e2a ac'a|gba {a}g2f|e2g gbg|agf edc|
d3 d2e|fga fga|g2e e2f|gab gab|\
agf edc|dcB Bcd|e2E B2G|A3 A2:|
